img/money.svg

<svg width="45" height="45" viewBox="0 0 45 45" fill="none" xmlns="http://www.w3.org/2000/svg">
<g clip-path="url(#clip0)">
<path d="M41.6193 23.5142C41.1226 23.5142 40.664 23.6353 40.2572 23.8179C39.6388 23.027 38.679 22.5152 37.597 22.5141C37.0378 22.5141 36.5235 22.6625 36.0816 22.8847L36.0353 22.9104L34.6537 23.7299C34.0343 22.9892 33.1066 22.5146 32.0658 22.5141C31.5067 22.5141 30.9923 22.6625 30.5504 22.8847L30.4951 22.9159L25.2052 26.1559C24.0106 25.8029 22.6843 25.4157 21.4026 25.0522C20.0506 24.6686 18.7504 24.3121 17.7082 24.0491C17.1863 23.9174 16.7298 23.8093 16.3567 23.7324C16.1696 23.6936 16.0037 23.663 15.8564 23.6404C15.7071 23.6183 15.5823 23.6027 15.4416 23.6022C15.333 23.6027 15.2389 23.6122 15.1319 23.6253C14.7423 23.6766 14.1881 23.7953 13.5345 23.9486C12.1991 24.2623 10.4947 24.7188 9.55294 24.9752V23.3813C9.55294 22.2752 8.64793 21.3701 7.54173 21.3701H2.01121C0.905012 21.3703 0 22.2753 0 23.3815V38.968C0 40.0741 0.905012 40.9792 2.01121 40.9792H7.54182C8.64793 40.9792 9.55303 40.0741 9.55303 38.968V37.7578C10.7467 38.0177 13.3959 38.5898 16.1889 39.1635C18.0779 39.5512 20.0301 39.9393 21.6426 40.2319C22.4491 40.3782 23.1706 40.5004 23.7614 40.5869C24.3572 40.6729 24.8011 40.7262 25.1395 40.7282C25.4029 40.7273 25.6523 40.6774 25.9218 40.603C26.4231 40.4617 26.9937 40.2219 27.6468 39.9046C29.9199 38.7965 33.1845 36.7204 36.2641 34.6661C39.3382 32.6142 42.2136 30.588 43.6224 29.6176C44.5043 29.0098 45.0001 27.9826 45.0001 26.8955C44.9986 25.0286 43.4866 23.5152 41.6193 23.5142ZM8.04456 38.9678C8.04456 39.2402 7.81428 39.4705 7.54182 39.4705H2.01121C1.73874 39.4705 1.50847 39.2402 1.50847 38.9678V23.3815C1.50847 23.109 1.73874 22.8788 2.01121 22.8788H7.54182C7.81428 22.8788 8.04456 23.109 8.04456 23.3815V38.9678ZM42.7671 28.3751C41.0345 29.5687 37.1575 32.3064 33.4047 34.7439C31.5299 35.9616 29.6862 37.1035 28.1743 37.9311C27.4191 38.3449 26.7453 38.6792 26.2068 38.903C25.9379 39.0145 25.7025 39.0986 25.5159 39.1503C25.3304 39.2031 25.1906 39.2207 25.1398 39.2197C24.9754 39.2212 24.5401 39.1779 23.9805 39.0944C21.9995 38.8043 18.2915 38.0636 15.0987 37.3975C13.5008 37.0642 12.0291 36.7494 10.9567 36.5181C10.3338 36.3839 9.85309 36.2788 9.55338 36.2139V26.5394C9.70077 26.4986 9.89378 26.4459 10.1255 26.3831C10.9205 26.1674 12.1337 25.844 13.2218 25.5761C13.7653 25.4418 14.2787 25.3223 14.6864 25.2372C14.8895 25.195 15.067 25.1614 15.2033 25.1397C15.3369 25.1175 15.441 25.1095 15.4421 25.111C15.4446 25.1105 15.5235 25.1155 15.6311 25.1322C16.0475 25.1945 16.9006 25.3941 17.9398 25.6661C21.0717 26.4842 26.0101 27.9629 28.0052 28.5687C28.6955 28.7768 29.3205 29.0906 29.7307 29.4713C29.9369 29.6614 30.0918 29.8645 30.1959 30.0841C30.2999 30.3048 30.3587 30.5437 30.3598 30.8358C30.3592 31.4275 30.1219 31.9565 29.7343 32.3452C29.3492 32.7289 28.8263 32.9636 28.2426 32.9691L26.2962 32.7786L19.6539 31.9258C19.2405 31.8731 18.8624 32.1646 18.8092 32.5779C18.7558 32.9912 19.0485 33.3687 19.4612 33.422L26.1251 34.2772L28.1875 34.4793H28.2247C30.2364 34.4788 31.8669 32.8482 31.868 30.836C31.8689 30.3298 31.7569 29.8536 31.5582 29.4368C31.2592 28.8088 30.778 28.3226 30.2339 27.9525C29.6878 27.5814 29.0715 27.3171 28.444 27.126C28.0941 27.0199 27.6532 26.8861 27.1494 26.7348L31.2425 24.2274C31.508 24.0967 31.7796 24.0227 32.0671 24.0222C32.5548 24.0217 32.9953 24.2107 33.3282 24.5165L31.306 25.7157C30.948 25.928 30.8299 26.391 31.0426 26.7489C31.2553 27.1069 31.7179 27.2256 32.0763 27.013L36.7703 24.229C37.0373 24.0968 37.3103 24.0224 37.599 24.0224C38.1194 24.0219 38.5875 24.2386 38.9268 24.5825L33.4611 27.824C33.1026 28.0363 32.985 28.4993 33.1977 28.8577C33.4104 29.2157 33.8729 29.3338 34.2314 29.1211L40.1417 25.6157C40.199 25.6061 40.2568 25.592 40.3131 25.5679C40.4343 25.5165 40.5329 25.4352 40.6087 25.3386L40.7932 25.229C41.0601 25.0967 41.3332 25.0223 41.6217 25.0223C42.1401 25.0229 42.6037 25.2311 42.9451 25.5709C43.285 25.9124 43.4931 26.3764 43.4937 26.8953C43.4912 27.5274 43.2016 28.0794 42.7671 28.3751Z" fill="#0E5B74"/>
<path d="M27.2533 12.6071C26.5911 12.1214 25.8239 11.8544 25.0622 11.6387C24.9587 11.6095 24.8571 11.586 24.7535 11.5587V6.95483C25.4891 7.06496 26.033 7.29426 26.3951 7.57727C26.6514 7.77643 26.828 7.99968 26.9491 8.25052C27.0683 8.50144 27.1322 8.78445 27.1326 9.10921C27.1326 9.52555 27.4705 9.8634 27.8868 9.8634C28.3032 9.8634 28.641 9.52555 28.641 9.10921C28.6415 8.58274 28.5334 8.06744 28.3102 7.60039C27.9764 6.897 27.3821 6.32087 26.6093 5.94576C26.0748 5.68525 25.4513 5.51984 24.754 5.43792V4.7747C24.754 4.35783 24.4161 4.02051 23.9998 4.02051C23.5829 4.02051 23.2456 4.35783 23.2456 4.7747V5.39617C22.6991 5.43836 22.2083 5.5455 21.7739 5.71091C20.9202 6.03373 20.2953 6.58472 19.9085 7.20365C19.5204 7.82301 19.3585 8.49626 19.358 9.10921C19.356 9.75424 19.5113 10.335 19.8035 10.8081C20.0573 11.2225 20.4023 11.5442 20.7784 11.7911C21.4395 12.223 22.1948 12.4553 22.9474 12.6564C23.0464 12.6821 23.1459 12.7072 23.2451 12.7318V17.6843C22.5113 17.6033 21.9488 17.368 21.5713 17.0472C21.1082 16.6489 20.871 16.1416 20.8659 15.494C20.8659 15.0772 20.528 14.7398 20.1117 14.7398C19.6953 14.7398 19.3575 15.0772 19.3575 15.494C19.3519 16.5484 19.8014 17.5319 20.5968 18.1985C21.2791 18.7757 22.1891 19.1216 23.245 19.2072V19.8622C23.245 20.2785 23.5823 20.6164 23.9992 20.6164C24.4155 20.6164 24.7533 20.2785 24.7533 19.8622V19.1799C25.6071 19.0939 26.4045 18.8833 27.0863 18.461C27.5519 18.1703 27.9557 17.7681 28.2282 17.2598C28.5028 16.753 28.6416 16.1537 28.6404 15.494C28.6414 14.8057 28.4936 14.1954 28.2131 13.6865C27.9688 13.2411 27.6299 12.8846 27.2533 12.6071ZM23.2445 11.1726C22.5105 10.976 21.8776 10.7458 21.4908 10.4491C21.2827 10.2917 21.1388 10.1263 21.0357 9.92466C20.9336 9.72154 20.8668 9.46956 20.8658 9.10912C20.8652 8.64558 21.0357 8.09047 21.452 7.66771C21.6617 7.45405 21.9351 7.2635 22.3097 7.12068C22.5677 7.02268 22.8793 6.95017 23.2444 6.91255V11.1726H23.2445ZM26.9008 16.543C26.7942 16.7391 26.657 16.9006 26.4779 17.0453C26.2104 17.2606 25.8394 17.434 25.3768 17.5491C25.1838 17.5974 24.9731 17.633 24.7533 17.6607V13.1211C25.2144 13.2542 25.6368 13.4012 25.9787 13.585C26.3603 13.7871 26.6354 14.0164 26.8224 14.2991C27.0074 14.5831 27.1296 14.9396 27.1321 15.4937C27.1311 15.9497 27.0405 16.282 26.9008 16.543Z" fill="#0E5B74"/>
</g>
<defs>
<clipPath id="clip0">
<rect width="45" height="45" fill="white"/>
</clipPath>
</defs>
</svg>

<svg width="45" height="45" viewBox="0 0 45 45" fill="none" xmlns="http://www.w3.org/2000/svg"><g clip-path="url(#clip0)" fill="#0E5B74"><path d="M41.62 23.514c-.497 0-.956.121-1.363.304a3.374 3.374 0 00-2.66-1.304 3.38 3.38 0 00-1.515.37l-.047.026-1.381.82a3.368 3.368 0 00-2.588-1.216c-.56 0-1.074.149-1.516.37l-.055.032-5.29 3.24c-1.194-.353-2.52-.74-3.802-1.104-1.352-.383-2.653-.74-3.695-1.003-.522-.132-.978-.24-1.351-.317a9.839 9.839 0 00-.5-.092 2.794 2.794 0 00-.415-.038c-.109 0-.203.01-.31.023-.39.052-.944.17-1.598.324-1.335.313-3.04.77-3.981 1.026v-1.594a2.017 2.017 0 00-2.011-2.01h-5.53A2.017 2.017 0 000 23.38v15.587c0 1.106.905 2.011 2.011 2.011h5.53a2.017 2.017 0 002.012-2.011v-1.21c1.194.26 3.843.832 6.636 1.405 1.889.388 3.841.776 5.454 1.069.806.146 1.528.268 2.118.355.596.086 1.04.14 1.379.141.263 0 .512-.05.782-.125.501-.141 1.072-.381 1.725-.698 2.273-1.108 5.538-3.185 8.617-5.239 3.074-2.052 5.95-4.078 7.358-5.048.882-.608 1.378-1.635 1.378-2.723a3.383 3.383 0 00-3.38-3.38zM8.044 38.968a.51.51 0 01-.503.502h-5.53a.51.51 0 01-.504-.502V23.38a.51.51 0 01.503-.502h5.53a.51.51 0 01.504.502v15.587zm34.722-10.593c-1.733 1.194-5.61 3.931-9.362 6.369-1.875 1.218-3.719 2.36-5.23 3.187-.756.414-1.43.748-1.968.972a6.226 6.226 0 01-.691.247c-.186.053-.325.07-.376.07-.165.001-.6-.042-1.16-.126-1.98-.29-5.689-1.03-8.881-1.697a632.66 632.66 0 01-4.142-.879l-1.404-.304v-9.675l.572-.156c.796-.216 2.009-.539 3.097-.807a43.276 43.276 0 011.464-.339c.204-.042.381-.076.517-.097.134-.023.238-.03.24-.029.002 0 .08.005.188.021.416.063 1.27.262 2.309.534 3.132.818 8.07 2.297 10.065 2.903.69.208 1.316.522 1.726.902.206.19.36.393.465.613.104.22.163.46.164.752 0 .591-.238 1.12-.626 1.51a2.127 2.127 0 01-1.491.623l-1.947-.19-6.642-.853a.755.755 0 00-.193 1.496l6.664.855 2.063.202h.037a3.645 3.645 0 003.643-3.643c0-.506-.111-.982-.31-1.4-.299-.627-.78-1.113-1.324-1.483-.546-.372-1.163-.636-1.79-.827-.35-.106-.79-.24-1.295-.391l4.093-2.508c.266-.13.538-.204.825-.205.488 0 .928.189 1.261.495l-2.022 1.199a.754.754 0 10.77 1.297l4.694-2.784a1.85 1.85 0 01.829-.207c.52 0 .989.217 1.328.56l-5.466 3.242a.754.754 0 10.77 1.297l5.91-3.505a.744.744 0 00.172-.048.746.746 0 00.296-.23l.184-.109a1.85 1.85 0 01.829-.207c.518 0 .982.21 1.323.549.34.341.548.805.549 1.324-.003.632-.292 1.184-.727 1.48zM27.253 12.607c-.662-.486-1.43-.753-2.19-.968-.104-.03-.206-.053-.31-.08V6.955c.736.11 1.28.34 1.642.622.256.2.433.423.554.674.12.25.183.533.184.858a.754.754 0 001.508 0c0-.526-.108-1.042-.33-1.509-.335-.703-.929-1.28-1.702-1.654-.534-.26-1.158-.426-1.855-.508v-.663a.754.754 0 10-1.508 0v.621a5.263 5.263 0 00-1.472.315c-.854.323-1.479.874-1.866 1.493a3.602 3.602 0 00-.55 1.905c-.002.645.153 1.226.445 1.7.254.414.6.735.975.982.662.432 1.417.664 2.17.865l.297.076v4.952c-.734-.08-1.296-.316-1.674-.637-.463-.398-.7-.905-.705-1.553a.754.754 0 10-1.508 0 3.482 3.482 0 001.239 2.704c.682.578 1.592.924 2.648 1.01v.654a.754.754 0 101.508 0v-.682c.854-.086 1.651-.297 2.333-.719.466-.29.87-.693 1.142-1.201.275-.507.414-1.106.412-1.766.001-.688-.146-1.299-.427-1.807a3.343 3.343 0 00-.96-1.08zm-4.009-1.434c-.733-.197-1.366-.427-1.753-.724a1.502 1.502 0 01-.455-.524c-.102-.203-.17-.455-.17-.816 0-.463.17-1.019.586-1.441a2.34 2.34 0 01.858-.547c.258-.098.57-.17.934-.208v4.26zm3.657 5.37a1.64 1.64 0 01-.423.502c-.268.216-.639.389-1.101.504a5.35 5.35 0 01-.624.112v-4.54c.461.133.884.28 1.226.464.381.202.656.431.843.714.185.284.308.64.31 1.195 0 .456-.091.788-.231 1.049z"/></g><defs><clipPath id="clip0"><path fill="#fff" d="M0 0h45v45H0z"/></clipPath></defs></svg>
